X: 24877
T: Magician's Daughter, The
R: reel
M: 4/4
K: Gmajor
|:GBde dB~B2|ABcd BGFG|Ec~c2 Dd(3dde|dBGB ~A3D|
GBde dB(3BBB|ABcd BGFG|Ec(3ccc Dd(3dde|"1"dcAF G3D:|"2"dcAF G4||
|:gfgd ed(3ddd|dged edBA|~G2GB dG(3ABd|gedB ~A2BA|
GBde dB~B2|ABcd BGFG|Ec~c2 Dd(3dde|"1"dcBA ~G2Bd:|"2"dcBAG4||

